X:1
T:Title
%%score { ( 1 2 ) | ( 3 4 ) }
L:1/8
M:4/4
K:F
V:1 treble nm="Grand Piano"
V:2 treble 
V:3 bass 
V:4 bass 
V:1
 z4 z2[Q:1/4=100] z G | A2 A>B c2 [EG]>[EA] | F4 C2 F2 | [EG]2 [EG]>[FA] [GB]2 [FA]>[EG] | %4
[M:3/4] A6 |[M:1/4] AB |[M:4/4] c2 d>d c2 A>A | [DB]4 D2 [DB]2 | A2 c>A [EG]2 [EA]>[EG] | %9
[M:3/4] F6 |[M:1/4] A2 |[M:4/4] [EG]2 [EG]>[EA] [EB]2 [Ed]>[Ed] | c4 A2 A2 | G2 c>c =B2 e>d | %14
[M:3/4] c4- cB |[M:1/4] AB |[M:4/4] c2 d>d c2 A>A | [DB]4 D2 [DB]2 | A2 c>A [B,EG]2 [CEA]>[B,EG] | %19
[M:3/4] [A,F]6 |] %20
V:2
 z4 z2 F2 | x8 | x8 | x8 |[M:3/4] x6 |[M:1/4] x2 |[M:4/4] x8 | x8 | x8 |[M:3/4] x6 |[M:1/4] x2 | %11
[M:4/4] x8 | x8 | x8 |[M:3/4] E6 |[M:1/4] x2 |[M:4/4] x8 | x8 | x8 |[M:3/4] x6 |] %20
V:3
 z4 z2 A,B, | [F,CF]2 [F,CF]>[F,B,F] [F,A,F]2 [C,B,]>[C,C] | [F,A,C]4 [F,A,]2 [F,A,C]2 | %3
 [C,C]2 [C,C]>[C,C] [C,C]2 [C,C]>[C,C] |[M:3/4] [F,CF]6 |[M:1/4] C z | %6
[M:4/4] [F,A,F]2 [F,B,F]>[F,B,F] [F,A,F]2 [F,CF]>[F,_E] | [B,,F,]4 [B,,F,]2 [B,,F,]2 | %8
 [F,C]2 [F,A,F]>[F,CF] [C,B,]2 [C,C]>[C,B,] |[M:3/4] [F,A,]6 |[M:1/4] [F,CF]2 | %11
[M:4/4] [C,C]2 [C,C]>[C,C] [C,C]2 [C,B,]>[C,B,] | [F,A,F]4 [F,CF]2 [F,CF]2 | %13
 [G,CE]2 [G,CE]>[G,CE] [G,DE]2 [G,CG]>[G,=B,F] |[M:3/4][K:bass] [C,C]6 |[M:1/4] C z | %16
[M:4/4] [F,A,F]2 [F,B,F]>[F,B,F] [F,A,F]2 [F,CF]>[F,_E] | [B,,F,]4 [B,,F,]2 [B,,F,]2 | %18
 [F,C]2 [F,A,F]>[F,CF] C,2 C,>C, |[M:3/4] F,6 |] %20
V:4
 z4 z2 F,2 | x8 | x8 | x8 |[M:3/4] x6 |[M:1/4] [F,F]-[F,B,F] |[M:4/4] x8 | x8 | x8 |[M:3/4] x6 | %10
[M:1/4] x2 |[M:4/4] x8 | x8 | x8 |[M:3/4][K:bass] x6 |[M:1/4] [F,F]-[F,B,F] |[M:4/4] x8 | x8 | x8 | %19
[M:3/4] x6 |] %20

